image/icons/vk_icon.svg

<svg width="25" height="15" viewBox="0 0 25 15" fill="none" xmlns="http://www.w3.org/2000/svg">
<path fill-rule="evenodd" clip-rule="evenodd" d="M24.1164 1.80445C24.2824 1.25845 24.1164 0.856445 23.3214 0.856445H20.6964C20.0284 0.856445 19.7204 1.20345 19.5534 1.58645C19.5534 1.58645 18.2184 4.78245 16.3274 6.85845C15.7154 7.46045 15.4374 7.65145 15.1034 7.65145C14.9364 7.65145 14.6854 7.46045 14.6854 6.91345V1.80445C14.6854 1.14845 14.5014 0.856445 13.9454 0.856445H9.81738C9.40038 0.856445 9.14938 1.16045 9.14938 1.44945C9.14938 2.07045 10.0954 2.21445 10.1924 3.96245V7.76045C10.1924 8.59345 10.0394 8.74444 9.70538 8.74444C8.81538 8.74444 6.65038 5.53345 5.36538 1.85945C5.11638 1.14445 4.86438 0.856445 4.19338 0.856445H1.56638C0.816382 0.856445 0.666382 1.20345 0.666382 1.58645C0.666382 2.26845 1.55638 5.65645 4.81138 10.1374C6.98138 13.1974 10.0364 14.8564 12.8194 14.8564C14.4884 14.8564 14.6944 14.4884 14.6944 13.8534V11.5404C14.6944 10.8034 14.8524 10.6564 15.3814 10.6564C15.7714 10.6564 16.4384 10.8484 17.9964 12.3234C19.7764 14.0724 20.0694 14.8564 21.0714 14.8564H23.6964C24.4464 14.8564 24.8224 14.4884 24.6064 13.7604C24.3684 13.0364 23.5184 11.9854 22.3914 10.7384C21.7794 10.0284 20.8614 9.26345 20.5824 8.88045C20.1934 8.38945 20.3044 8.17044 20.5824 7.73345C20.5824 7.73345 23.7824 3.30745 24.1154 1.80445H24.1164Z" fill="#83B3D3"/>
</svg>

<svg width="25" height="15" viewBox="0 0 25 15" fill="none" xmlns="http://www.w3.org/2000/svg"><path fill-rule="evenodd" clip-rule="evenodd" d="M24.12 1.8c.16-.54 0-.94-.8-.94H20.7c-.67 0-.98.34-1.15.73 0 0-1.33 3.2-3.22 5.27-.61.6-.9.8-1.23.8-.16 0-.41-.2-.41-.75v-5.1c0-.66-.19-.95-.74-.95H9.82c-.42 0-.67.3-.67.59 0 .62.95.76 1.04 2.51v3.8c0 .83-.15.98-.48.98-.9 0-3.06-3.2-4.34-6.88-.25-.72-.5-1-1.18-1H1.57c-.75 0-.9.34-.9.73 0 .68.89 4.07 4.14 8.55 2.17 3.06 5.23 4.72 8 4.72 1.68 0 1.88-.37 1.88-1v-2.32c0-.74.16-.88.7-.88.38 0 1.05.19 2.6 1.66 1.79 1.75 2.08 2.54 3.08 2.54h2.63c.75 0 1.12-.37.9-1.1-.23-.72-1.08-1.77-2.2-3.02-.62-.71-1.54-1.48-1.82-1.86-.39-.5-.28-.71 0-1.15 0 0 3.2-4.42 3.54-5.93Z" fill="#83B3D3"/></svg>
